images/uneRSDL.svg

<svg height="250" viewBox="0 0 250 250" width="250" xmlns="http://www.w3.org/2000/svg" xmlns:xlink="http://www.w3.org/1999/xlink"><linearGradient id="a" gradientUnits="userSpaceOnUse" x1="60.19816791278" x2="249.16055933273" y1="-.00000229358" y2="43.7715599832"><stop offset="0" stop-color="#2e73ff"/><stop offset=".894147" stop-color="#184ce8"/></linearGradient><path d="m248.820312 124.410156c0 68.710938-55.699218 124.410156-124.410156 124.410156-68.710937 0-124.410156-55.699218-124.410156-124.410156 0-68.710937 55.699219-124.410156 124.410156-124.410156 68.710938 0 124.410156 55.699219 124.410156 124.410156zm0 0" fill="url(#a)"/><path d="m153.121094 187.890625c-2.632813-2.9375-6.191406-4.40625-10.675782-4.40625-2.636718 0-4.972656.539063-7.007812 1.609375-2 1.050781-3.59375 2.417969-4.789062 4.105469v-5.371094h-13.664063v20.550781c0 2.1875-.578125 3.90625-1.730469 5.160156-1.160156 1.25-2.730468 1.875-4.71875 1.875-1.941406 0-3.5-.625-4.679687-1.875-1.179688-1.253906-1.769531-2.972656-1.769531-5.160156v-20.550781h-13.523438v22.261719c0 5.050781 1.308594 9.046875 3.917969 11.984375 2.613281 2.933593 6.183593 4.402343 10.714843 4.402343 2.636719 0 4.972657-.535156 7.007813-1.605468 2.03125-1.066406 3.628906-2.46875 4.78125-4.199219v5.464844h13.664063v-21.765625c.179687-1.621094.738281-2.933594 1.671874-3.945313 1.152344-1.25 2.746094-1.878906 4.78125-1.878906 1.941407 0 3.492188.628906 4.648438 1.878906 1.15625 1.253907 1.734375 2.96875 1.734375 5.15625v20.554688h13.59375v-22.328125c0-5.007813-1.320313-8.980469-3.957031-11.917969zm0 0" fill="#fff"/><path d="m210.792969 179.753906c10.25-15.964844 16.195312-34.960937 16.195312-55.34375 0-56.65625-45.925781-102.582031-102.582031-102.582031s-102.582031 45.925781-102.582031 102.582031c0 20.5625 6.046875 39.710938 16.464843 55.761719 21.398438-10.644531 52.308594-17.328125 86.675782-17.328125 33.917968 0 64.464844 6.511719 85.828125 16.910156zm0 0" fill="#fff" fill-rule="evenodd"/><path d="m172.355469 80.648438c-4.363281-4.835938-10.253907-7.253907-17.675781-7.253907-4.363282 0-8.230469.882813-11.597657 2.644531-3.308593 1.730469-5.945312 3.984376-7.925781 6.765626v-8.847657h-22.617188v33.851563c0 3.601562-.957031 6.429687-2.867187 8.492187-1.914063 2.066407-4.515625 3.09375-7.804687 3.09375-3.210938 0-5.796876-1.027343-7.75-3.09375-1.949219-2.0625-2.925782-4.890625-2.925782-8.492187v-33.851563h-22.382812v36.667969c0 8.316406 2.160156 14.898438 6.480468 19.734375 4.328126 4.835937 10.238282 7.253906 17.738282 7.253906 4.359375 0 8.226562-.882812 11.597656-2.644531 3.363281-1.757812 6.003906-4.0625 7.914062-6.914062v8.996093h22.617188v-35.847656c.296875-2.667969 1.21875-4.832031 2.765625-6.496094 1.910156-2.058593 4.550781-3.09375 7.917969-3.09375 3.210937 0 5.777344 1.035157 7.691406 3.09375 1.910156 2.0625 2.867188 4.890625 2.867188 8.492188v33.851562h22.5v-36.773437c0-8.246094-2.179688-14.792969-6.542969-19.628906zm0 0" fill="#042751"/></svg>

<svg xmlns="http://www.w3.org/2000/svg" xmlns:xlink="http://www.w3.org/1999/xlink" width="250px" height="250px" viewBox="0 0 250 250" version="1.1">
<defs>
<linearGradient id="linear0" gradientUnits="userSpaceOnUse" x1="26.246401" y1="-0.000000559633" x2="108.634003" y2="19.0844" gradientTransform="matrix(2.293578,0,0,2.293578,0,0)">
<stop offset="0" style="stop-color:rgb(18.039216%,45.09804%,100%);stop-opacity:1;"/>
<stop offset="0.894147" style="stop-color:rgb(9.411765%,29.803923%,90.980393%);stop-opacity:1;"/>
</linearGradient>
</defs>
<g id="surface1">
<path style=" stroke:none;fill-rule:nonzero;fill:url(#linear0);" d="M 248.820312 124.410156 C 248.820312 193.121094 193.121094 248.820312 124.410156 248.820312 C 55.699219 248.820312 0 193.121094 0 124.410156 C 0 55.699219 55.699219 0 124.410156 0 C 193.121094 0 248.820312 55.699219 248.820312 124.410156 Z M 248.820312 124.410156 "/>
<path style=" stroke:none;fill-rule:nonzero;fill:rgb(100%,100%,100%);fill-opacity:1;" d="M 153.121094 187.890625 C 150.488281 184.953125 146.929688 183.484375 142.445312 183.484375 C 139.808594 183.484375 137.472656 184.023438 135.4375 185.09375 C 133.4375 186.144531 131.84375 187.511719 130.648438 189.199219 L 130.648438 183.828125 L 116.984375 183.828125 L 116.984375 204.378906 C 116.984375 206.566406 116.40625 208.285156 115.253906 209.539062 C 114.09375 210.789062 112.523438 211.414062 110.535156 211.414062 C 108.59375 211.414062 107.035156 210.789062 105.855469 209.539062 C 104.675781 208.285156 104.085938 206.566406 104.085938 204.378906 L 104.085938 183.828125 L 90.5625 183.828125 L 90.5625 206.089844 C 90.5625 211.140625 91.871094 215.136719 94.480469 218.074219 C 97.09375 221.007812 100.664062 222.476562 105.195312 222.476562 C 107.832031 222.476562 110.167969 221.941406 112.203125 220.871094 C 114.234375 219.804688 115.832031 218.402344 116.984375 216.671875 L 116.984375 222.136719 L 130.648438 222.136719 L 130.648438 200.371094 C 130.828125 198.75 131.386719 197.4375 132.320312 196.425781 C 133.472656 195.175781 135.066406 194.546875 137.101562 194.546875 C 139.042969 194.546875 140.59375 195.175781 141.75 196.425781 C 142.90625 197.679688 143.484375 199.394531 143.484375 201.582031 L 143.484375 222.136719 L 157.078125 222.136719 L 157.078125 199.808594 C 157.078125 194.800781 155.757812 190.828125 153.121094 187.890625 Z M 153.121094 187.890625 "/>
<path style=" stroke:none;fill-rule:evenodd;fill:rgb(100%,100%,100%);fill-opacity:1;" d="M 210.792969 179.753906 C 221.042969 163.789062 226.988281 144.792969 226.988281 124.410156 C 226.988281 67.753906 181.0625 21.828125 124.40625 21.828125 C 67.75 21.828125 21.824219 67.753906 21.824219 124.410156 C 21.824219 144.972656 27.871094 164.121094 38.289062 180.171875 C 59.6875 169.527344 90.597656 162.84375 124.964844 162.84375 C 158.882812 162.84375 189.429688 169.355469 210.792969 179.753906 Z M 210.792969 179.753906 "/>
<path style=" stroke:none;fill-rule:nonzero;fill:rgb(1.568628%,15.294118%,31.764707%);fill-opacity:1;" d="M 172.355469 80.648438 C 167.992188 75.8125 162.101562 73.394531 154.679688 73.394531 C 150.316406 73.394531 146.449219 74.277344 143.082031 76.039062 C 139.773438 77.769531 137.136719 80.023438 135.15625 82.804688 L 135.15625 73.957031 L 112.539062 73.957031 L 112.539062 107.808594 C 112.539062 111.410156 111.582031 114.238281 109.671875 116.300781 C 107.757812 118.367188 105.15625 119.394531 101.867188 119.394531 C 98.65625 119.394531 96.070312 118.367188 94.117188 116.300781 C 92.167969 114.238281 91.191406 111.410156 91.191406 107.808594 L 91.191406 73.957031 L 68.808594 73.957031 L 68.808594 110.625 C 68.808594 118.941406 70.96875 125.523438 75.289062 130.359375 C 79.617188 135.195312 85.527344 137.613281 93.027344 137.613281 C 97.386719 137.613281 101.253906 136.730469 104.625 134.96875 C 107.988281 133.210938 110.628906 130.90625 112.539062 128.054688 L 112.539062 137.050781 L 135.15625 137.050781 L 135.15625 101.203125 C 135.453125 98.535156 136.375 96.371094 137.921875 94.707031 C 139.832031 92.648438 142.472656 91.613281 145.839844 91.613281 C 149.050781 91.613281 151.617188 92.648438 153.53125 94.707031 C 155.441406 96.769531 156.398438 99.597656 156.398438 103.199219 L 156.398438 137.050781 L 178.898438 137.050781 L 178.898438 100.277344 C 178.898438 92.03125 176.71875 85.484375 172.355469 80.648438 Z M 172.355469 80.648438 "/>
</g>
</svg>
